svg/m/SK.svg

<svg width="20" height="15" viewBox="0 0 20 15" fill="none" xmlns="http://www.w3.org/2000/svg">
<g clip-path="url(#clip0_270_61004)">
<rect width="20" height="15" fill="white"/>
<path fill-rule="evenodd" clip-rule="evenodd" d="M0 0V15H20V0H0Z" fill="#3D58DB"/>
<mask id="mask0_270_61004" style="mask-type:luminance" maskUnits="userSpaceOnUse" x="0" y="0" width="20" height="15">
<path fill-rule="evenodd" clip-rule="evenodd" d="M0 0V15H20V0H0Z" fill="white"/>
</mask>
<g mask="url(#mask0_270_61004)">
<path fill-rule="evenodd" clip-rule="evenodd" d="M0 0V5H20V0H0Z" fill="#F7FCFF"/>
<path fill-rule="evenodd" clip-rule="evenodd" d="M0 10V15H20V10H0Z" fill="#E31D1C"/>
<path d="M9.75245 3.76898L10.0632 3.73592L10.0335 3.45648H9.75245H3.96552H3.67338L3.65373 3.74796L3.96552 3.76898L3.65372 3.74801L3.65371 3.74815L3.65368 3.74865L3.65355 3.75057L3.65305 3.75802L3.65115 3.78693L3.64406 3.89705C3.63803 3.99229 3.62956 4.12932 3.61982 4.29679C3.60034 4.63163 3.57572 5.08864 3.55521 5.57687C3.51478 6.53913 3.48798 7.66561 3.55799 8.19169C3.6946 9.21824 4.31968 11.5227 6.73739 12.567L6.86348 12.6215L6.98887 12.5654C9.28525 11.5386 10.0533 9.47074 10.2305 8.1934C10.3199 7.54875 10.2744 6.42073 10.2117 5.48335C10.1799 5.00834 10.1428 4.57187 10.1137 4.25425C10.0991 4.09538 10.0865 3.96608 10.0775 3.87638L10.067 3.77273L10.0642 3.7455L10.0635 3.73845L10.0633 3.73661L10.0632 3.73612L10.0632 3.73598L9.75245 3.76898Z" fill="#E31D1C" stroke="white" stroke-width="0.625"/>
<mask id="mask1_270_61004" style="mask-type:luminance" maskUnits="userSpaceOnUse" x="3" y="3" width="8" height="10">
<path d="M9.75245 3.76898L10.0632 3.73592L10.0335 3.45648H9.75245H3.96552H3.67338L3.65373 3.74796L3.96552 3.76898L3.65372 3.74801L3.65371 3.74815L3.65368 3.74865L3.65355 3.75057L3.65305 3.75802L3.65115 3.78693L3.64406 3.89705C3.63803 3.99229 3.62956 4.12932 3.61982 4.29679C3.60034 4.63163 3.57572 5.08864 3.55521 5.57687C3.51478 6.53913 3.48798 7.66561 3.55799 8.19169C3.6946 9.21824 4.31968 11.5227 6.73739 12.567L6.86348 12.6215L6.98887 12.5654C9.28525 11.5386 10.0533 9.47074 10.2305 8.1934C10.3199 7.54875 10.2744 6.42073 10.2117 5.48335C10.1799 5.00834 10.1428 4.57187 10.1137 4.25425C10.0991 4.09538 10.0865 3.96608 10.0775 3.87638L10.067 3.77273L10.0642 3.7455L10.0635 3.73845L10.0633 3.73661L10.0632 3.73612L10.0632 3.73598L9.75245 3.76898Z" fill="white" stroke="white" stroke-width="0.625"/>
</mask>
<g mask="url(#mask1_270_61004)">
<path fill-rule="evenodd" clip-rule="evenodd" d="M6.41068 4.11859C6.41068 4.11859 6.53974 4.31523 6.59751 4.61591C6.65529 4.91658 6.66525 5.44341 6.66525 5.44341L5.44095 5.29267V6.22097L6.6926 6.06157L6.67226 6.94266C6.67226 6.94266 6.29781 6.98147 5.9907 6.94266C5.68358 6.90384 5.07857 6.74122 5.07857 6.74122V7.80396C5.07857 7.80396 5.69325 7.6073 5.9907 7.56218C6.28814 7.51705 6.67226 7.56218 6.67226 7.56218V8.86737H7.1804V7.56218C7.1804 7.56218 7.73588 7.51389 8.06724 7.56617C8.3986 7.61845 8.71291 7.80396 8.71291 7.80396V6.74122C8.71291 6.74122 8.39448 6.89987 8.09413 6.93934C7.79379 6.97882 7.1804 6.94266 7.1804 6.94266L7.20075 6.06157C7.20075 6.06157 7.61652 6.01852 7.84978 6.05019C8.08304 6.08185 8.37499 6.22097 8.37499 6.22097V5.29267C8.37499 5.29267 8.09043 5.44751 7.86654 5.47559C7.64265 5.50368 7.17339 5.44341 7.17339 5.44341C7.17339 5.44341 7.18171 4.89974 7.22986 4.63501C7.278 4.37029 7.41432 4.11859 7.41432 4.11859H6.41068Z" fill="#F7FCFF"/>
<path fill-rule="evenodd" clip-rule="evenodd" d="M4.31084 10.1533C4.31084 10.1533 4.58552 9.5638 5.03248 9.4517C5.47944 9.3396 5.94811 9.80252 5.94811 9.80252C5.94811 9.80252 6.2343 8.86725 6.93187 8.86725C7.62943 8.86725 7.87425 9.80252 7.87425 9.80252C7.87425 9.80252 8.17186 9.4517 8.59985 9.4517C9.02784 9.4517 9.42436 10.1533 9.42436 10.1533C9.42436 10.1533 8.14598 12.4742 6.8676 12.4742C5.58922 12.4742 4.31084 10.1533 4.31084 10.1533Z" fill="#2E42A5"/>
</g>
</g>
</g>
<defs>
<clipPath id="clip0_270_61004">
<rect width="20" height="15" fill="white"/>
</clipPath>
</defs>
</svg>

<svg width="20" height="15" fill="none" xmlns="http://www.w3.org/2000/svg">
  <mask id="a" maskUnits="userSpaceOnUse" x="0" y="0" width="20" height="15">
    <path fill="#fff" d="M0 0h20v15H0z"/>
  </mask>
  <g mask="url(#a)">
    <path fill-rule="evenodd" clip-rule="evenodd" d="M0 0v15h20V0H0z" fill="#3D58DB"/>
    <mask id="b" maskUnits="userSpaceOnUse" x="0" y="0" width="20" height="15">
      <path fill-rule="evenodd" clip-rule="evenodd" d="M0 0v15h20V0H0z" fill="#fff"/>
    </mask>
    <g mask="url(#b)">
      <path fill-rule="evenodd" clip-rule="evenodd" d="M0 0v5h20V0H0z" fill="#F7FCFF"/>
      <path fill-rule="evenodd" clip-rule="evenodd" d="M0 10v5h20v-5H0z" fill="#E31D1C"/>
      <path d="M9.752 3.769l.311-.033-.03-.28h-6.36l-.02.292.313.021-.312-.021h0v.003l-.001.007-.002.029-.007.11a78.473 78.473 0 00-.089 1.68c-.04.962-.067 2.089.003 2.615.137 1.026.762 3.33 3.18 4.375l.125.054.126-.056c2.296-1.026 3.064-3.094 3.241-4.372.09-.644.044-1.772-.018-2.71a51.146 51.146 0 00-.134-1.607l-.011-.103-.003-.028v-.008h0v-.001l-.312.033z" fill="#E31D1C" stroke="#fff" stroke-width=".625"/>
      <mask id="c" maskUnits="userSpaceOnUse" x="3" y="3" width="8" height="10">
        <path d="M9.752 3.769l.311-.033-.03-.28h-6.36l-.02.292.313.021-.312-.021h0v.003l-.001.007-.002.029-.007.11a78.473 78.473 0 00-.089 1.68c-.04.962-.067 2.089.003 2.615.137 1.026.762 3.33 3.18 4.375l.125.054.126-.056c2.296-1.026 3.064-3.094 3.241-4.372.09-.644.044-1.772-.018-2.71a51.146 51.146 0 00-.134-1.607l-.011-.103-.003-.028v-.008h0v-.001l-.312.033z" fill="#fff" stroke="#fff" stroke-width=".625"/>
      </mask>
      <g mask="url(#c)" fill-rule="evenodd" clip-rule="evenodd">
        <path d="M6.41 4.119s.13.196.188.497c.057.3.067.827.067.827l-1.224-.15v.928l1.252-.16-.02.882s-.375.038-.682 0a9.994 9.994 0 01-.912-.202v1.063s.614-.197.912-.242c.297-.045.681 0 .681 0v1.305h.508V7.562s.556-.048.887.004c.332.052.646.238.646.238V6.741s-.319.159-.619.198c-.3.04-.914.004-.914.004l.02-.881s.417-.043.65-.012c.233.032.525.171.525.171v-.928s-.285.155-.508.183c-.224.028-.694-.033-.694-.033s.009-.543.057-.808.184-.516.184-.516H6.411z" fill="#F7FCFF"/>
        <path d="M4.31 10.153s.276-.59.722-.701c.447-.112.916.35.916.35s.286-.935.984-.935c.697 0 .942.936.942.936s.298-.351.726-.351.824.701.824.701-1.278 2.321-2.556 2.321c-1.279 0-2.557-2.32-2.557-2.32z" fill="#2E42A5"/>
      </g>
    </g>
  </g>
</svg>
